X: 32382
T: Piper From Keatu
R: hornpipe
M: 4/4
K: Dmajor
d2dB ADFA|GBB2 GABc|d2dB ADFA|EA,CE Dgfe|
d2dB ADFA|GBB2 GABc|de (3dcB ADFA|EA,CE DABc|
defg afdf|e^def e=dBc|defg afdf|(3eae (3ABc d2 (3ABc|
defg afdf|e^def e=dBc|(3dcB (3cBA (3BAG (3AGF|(3EFG (3ABc (3dAG (3FED|

